svgs/duotone/plug-circle-minus.svg

<svg xmlns="http://www.w3.org/2000/svg" viewBox="0 0 576 512"><!--! Font Awesome Pro 6.4.0 by @fontawesome - https://fontawesome.com License - https://fontawesome.com/license (Commercial License) Copyright 2023 Fonticons, Inc. --><defs><style>.fa-secondary{opacity:.4}</style></defs><path class="fa-primary" d="M432 512a144 144 0 1 0 0-288 144 144 0 1 0 0 288zm64-128l-128 0c-8.8 0-16-7.2-16-16s7.2-16 16-16H496c8.8 0 16 7.2 16 16s-7.2 16-16 16z"/><path class="fa-secondary" d="M128 32v96H64V32C64 14.3 78.3 0 96 0s32 14.3 32 32zm192 0v96H256V32c0-17.7 14.3-32 32-32s32 14.3 32 32zM0 192c0-17.7 14.3-32 32-32H352c17.7 0 32 14.3 32 32c0 2.3-.3 4.6-.7 6.8C309.8 220 256 287.7 256 368c0 11.4 1.1 22.5 3.1 33.3c-11.1 5.1-22.9 9-35.1 11.5V480c0 17.7-14.3 32-32 32s-32-14.3-32-32V412.8C87 398 32 333.4 32 256V224c-17.7 0-32-14.3-32-32z"/></svg>

<svg xmlns="http://www.w3.org/2000/svg" viewBox="0 0 576 512"><!--! Font Awesome Pro 6.3.0 by @fontawesome - https://fontawesome.com License - https://fontawesome.com/license (Commercial License) Copyright 2023 Fonticons, Inc. --><defs><style>.fa-secondary{opacity:.4}</style></defs><path class="fa-primary" d="M288 368C288 288.5 352.5 224 432 224C511.5 224 576 288.5 576 368C576 447.5 511.5 512 432 512C352.5 512 288 447.5 288 368zM496 383.1C504.8 383.1 512 376.8 512 367.1C512 359.2 504.8 351.1 496 351.1H368C359.2 351.1 352 359.2 352 367.1C352 376.8 359.2 383.1 368 383.1H496z"/><path class="fa-secondary" d="M128 128H64V32C64 14.33 78.33 0 96 0C113.7 0 128 14.33 128 32V128zM320 128H256V32C256 14.33 270.3 0 288 0C305.7 0 320 14.33 320 32V128zM0 192C0 174.3 14.33 160 32 160H352C369.7 160 384 174.3 384 192C384 194.3 383.7 196.6 383.3 198.8C309.8 219.1 256 287.7 256 368C256 379.4 257.1 390.5 259.1 401.3C248.1 406.4 236.3 410.3 224 412.8V512H160V412.8C86.97 397.1 32 333.4 32 256V224C14.33 224 0 209.7 0 192V192z"/></svg>
